;FLAVOR:Marlin
;TIME:6666
;Filament used: 0m
;Layer height: 0.1
;MINX:2.14748e+06
;MINY:2.14748e+06
;MINZ:2.14748e+06
;MAXX:-2.14748e+06
;MAXY:-2.14748e+06
;MAXZ:-2.14748e+06

;Generated with Cura_SteamEngine master
M140 S60
M105
M190 S60
M104 S215
M105
M109 S215
M82 ;absolute extrusion mode
G21 ;metric values
G90 ;absolute positioning
M82 ;set extruder to absolute mode
M107 ;start with the fan off
G92 Y0
G28 X0 ;move X/Y to min endstops
G28 Z0 ;move Z to min endstops
G1 Z15.0 F900 ;move the platform down 15mm
G92 E0 ;zero the extruded length
G1 F200 E6 ;extrude 6 mm of feed stock
G92 E0 ;zero the extruded length again
G1 F3000
;Put printing message on LCD screen
M117 Printing...
G92 E0
G92 E0
G1 F1500 E-6.5
;LAYER_COUNT:198
;LAYER:0
M107
G0 F3600 X80.589 Y71.138 Z0.3
;TYPE:SKIRT
G1 F1500 E0
G1 F1800 X81.009 Y70.671 E0.03134
G1 X81.245 Y70.429 E0.0482
G1 X81.916 Y69.817 E0.09351
G1 X83.461 Y68.564 E0.19275
G1 X84.099 Y68.098 E0.23217
G1 X84.78 Y67.699 E0.27155
G1 X85.499 Y67.371 E0.31097
G1 X86.246 Y67.118 E0.35032
G1 X87.016 Y66.941 E0.38974
G1 X87.105 Y66.928 E0.39422
G1 X88.489 Y66.563 E0.46563
G1 X89.262 Y66.401 E0.50504
G1 X90.047 Y66.317 E0.54442
G1 X90.837 Y66.313 E0.58384
G1 X91.394 Y66.359 E0.61172
G1 X94.204 Y66.691 E0.75289
G1 X94.983 Y66.823 E0.79231
G1 X95.744 Y67.033 E0.83169
G1 X96.253 Y67.222 E0.85878
G1 X101.76 Y69.484 E1.1558
G1 X102.689 Y69.94 E1.20743
G1 X102.972 Y70.103 E1.22372
G1 X103.938 Y70.76 E1.28201
G1 X108.748 Y74.59 E1.58876
G1 X109.34 Y75.113 E1.62817
G1 X109.876 Y75.692 E1.66753
G1 X110.2 Y76.108 E1.69384
G1 X113.897 Y81.197 E2.00766
G1 X114.328 Y81.858 E2.04703
G1 X114.69 Y82.56 E2.08643
G1 X114.979 Y83.295 E2.12583
G1 X115.055 Y83.564 E2.13978
G1 X116.674 Y87.886 E2.37004
G1 X116.868 Y88.247 E2.39048
G1 X117.169 Y88.977 E2.42988
G1 X117.439 Y89.92 E2.47881
G1 X118.118 Y93.023 E2.63729
G1 X118.247 Y93.802 E2.67668
G1 X118.298 Y94.686 E2.72086
G1 X118.3 Y98.179 E2.89512
G1 X118.26 Y98.967 E2.93449
G1 X118.141 Y99.748 E2.9739
G1 X117.944 Y100.512 E3.01326
G1 X117.795 Y100.945 E3.03611
G1 X117.653 Y101.32 E3.05611
G1 X117.336 Y102.044 E3.09555
G1 X116.948 Y102.731 E3.13491
G1 X116.666 Y103.146 E3.15994
G1 X114.313 Y106.381 E3.35951
G1 X113.817 Y106.995 E3.39889
G1 X113.117 Y107.684 E3.44789
G1 X110.114 Y110.29 E3.64626
G1 X109.71 Y110.618 E3.67222
G1 X109.5 Y110.777 E3.68536
G1 X108.847 Y111.221 E3.72476
G1 X108.478 Y111.432 E3.74597
G1 X101.786 Y115.02 E4.12479
G1 X101.072 Y115.358 E4.1642
G1 X100.327 Y115.621 E4.20362
G1 X99.56 Y115.808 E4.24301
G1 X98.778 Y115.916 E4.28239
G1 X97.989 Y115.945 E4.32178
G1 X97.201 Y115.894 E4.36118
G1 X96.422 Y115.763 E4.40059
G1 X95.894 Y115.628 E4.42778
G1 X95.738 Y115.582 E4.43589
G1 X94.993 Y115.32 E4.47529
G1 X94.278 Y114.985 E4.51468
G1 X93.6 Y114.579 E4.55411
G1 X92.968 Y114.106 E4.59349
G1 X92.386 Y113.572 E4.6329
G1 X91.861 Y112.982 E4.6723
G1 X91.399 Y112.342 E4.71168
G1 X91.124 Y111.885 E4.73829
G1 X90.237 Y110.287 E4.82947
G1 X89.889 Y109.579 E4.86883
G1 X89.615 Y108.838 E4.90825
G1 X89.434 Y108.14 E4.94422
G1 X89.234 Y107.955 E4.95781
G1 X88.682 Y107.39 E4.99722
G1 X88.191 Y106.772 E5.0366
G1 X87.764 Y106.108 E5.07599
G1 X87.407 Y105.403 E5.11541
G1 X87.123 Y104.667 E5.15477
G1 X87.097 Y104.57 E5.15978
G1 X85.214 Y100.479 E5.38446
G1 X78.234 Y87.5 E6.11969
G1 X77.866 Y86.712 E6.16308
G1 X77.76 Y86.448 E6.17727
G1 X77.503 Y85.702 E6.21663
G1 X77.323 Y84.933 E6.25604
G1 X77.204 Y83.855 E6.31015
G1 X77.106 Y81.418 E6.43183
G1 X77.112 Y80.677 E6.4688
G1 X77.126 Y80.422 E6.48154
G1 X77.209 Y79.637 E6.52092
G1 X77.403 Y78.746 E6.56641
G1 X78.083 Y76.318 E6.69221
G1 X78.334 Y75.57 E6.73157
G1 X78.66 Y74.85 E6.771
G1 X78.738 Y74.715 E6.77878
G1 X79.374 Y73.162 E6.86251
G1 X79.71 Y72.448 E6.90187
G1 X80.116 Y71.77 E6.9413
G1 X80.589 Y71.138 E6.98068
G0 F3600 X80.935 Y71.347
G1 F1800 X81.295 Y70.95 E7.00742
G1 X81.531 Y70.708 E7.02429
G1 X82.168 Y70.128 E7.06727
G1 X83.713 Y68.875 E7.16651
G1 X84.335 Y68.422 E7.2049
G1 X85 Y68.036 E7.24326
G1 X85.702 Y67.721 E7.28165
G1 X86.433 Y67.481 E7.32003
G1 X86.971 Y67.377 E7.34737
G1 X88.591 Y66.95 E7.43095
G1 X89.344 Y66.793 E7.46933
G1 X90.109 Y66.714 E7.5077
G1 X90.879 Y66.716 E7.54611
G1 X91.347 Y66.756 E7.56954
G1 X94.157 Y67.088 E7.71071
G1 X94.915 Y67.218 E7.74908
G1 X95.656 Y67.426 E7.78748
G1 X96.101 Y67.592 E7.81117
G1 X101.608 Y69.854 E8.10819
G1 X102.489 Y70.287 E8.15717
G1 X102.772 Y70.45 E8.17346
G1 X103.689 Y71.073 E8.22877
G1 X108.499 Y74.903 E8.53552
G1 X109.075 Y75.413 E8.57391
G1 X109.594 Y75.98 E8.61225
G1 X109.876 Y76.343 E8.63519
G1 X113.573 Y81.432 E8.949
G1 X113.992 Y82.077 E8.98738
G1 X114.342 Y82.762 E9.02575
G1 X114.619 Y83.479 E9.0641
G1 X114.686 Y83.721 E9.07663
G1 X116.307 Y88.047 E9.30711
G1 X116.548 Y88.509 E9.33311
G1 X116.831 Y89.224 E9.37147
G1 X117.048 Y90.005 E9.41191
G1 X117.727 Y93.108 E9.57038
G1 X117.852 Y93.867 E9.60876
G1 X117.898 Y94.686 E9.64968
G1 X117.9 Y98.179 E9.82395
G1 X117.86 Y98.947 E9.86232
G1 X117.741 Y99.707 E9.9007
G1 X117.42 Y100.804 E9.95772
G1 X117.278 Y101.179 E9.97773
G1 X116.969 Y101.883 E10.01608
G1 X116.588 Y102.551 E10.05445
G1 X116.342 Y102.911 E10.0762
G1 X113.989 Y106.146 E10.27577
G1 X113.505 Y106.743 E10.31412
G1 X112.855 Y107.382 E10.35959
G1 X109.852 Y109.988 E10.55796
G1 X109.469 Y110.299 E10.58257
G1 X109.259 Y110.458 E10.59572
G1 X108.289 Y111.08 E10.6532
G1 X101.597 Y114.668 E11.03203
G1 X100.901 Y114.995 E11.07039
G1 X100.175 Y115.249 E11.10877
G1 X99.426 Y115.426 E11.14716
G1 X98.663 Y115.525 E11.18555
G1 X97.894 Y115.543 E11.22393
G1 X97.128 Y115.482 E11.26226
G1 X96.007 Y115.244 E11.31944
G1 X95.851 Y115.198 E11.32755
G1 X95.126 Y114.942 E11.36591
G1 X94.431 Y114.613 E11.40427
G1 X93.774 Y114.213 E11.44265
G1 X93.162 Y113.747 E11.48102
G1 X92.601 Y113.22 E11.51942
G1 X92.099 Y112.638 E11.55777
G1 X91.474 Y111.691 E11.61438
G1 X90.587 Y110.093 E11.70556
G1 X90.249 Y109.402 E11.74394
G1 X89.985 Y108.68 E11.78229
G1 X89.797 Y107.934 E11.82067
G1 X89.797 Y107.931 E11.82082
G1 X89.506 Y107.662 E11.84059
G1 X88.969 Y107.111 E11.87898
G1 X88.493 Y106.507 E11.91734
G1 X88.082 Y105.857 E11.95571
G1 X87.74 Y105.168 E11.99409
G1 X87.472 Y104.447 E12.03246
G1 X87.462 Y104.409 E12.03442
G1 X85.566 Y100.288 E12.26074
G1 X78.587 Y87.311 E12.99585
G1 X78.237 Y86.563 E13.03705
G1 X78.131 Y86.299 E13.05125
G1 X77.882 Y85.572 E13.08958
G1 X77.71 Y84.822 E13.12797
G1 X77.604 Y83.839 E13.1773
G1 X77.506 Y81.402 E13.29898
G1 X77.511 Y80.699 E13.33405
G1 X77.525 Y80.444 E13.34679
G1 X77.607 Y79.68 E13.38513
G1 X77.788 Y78.854 E13.42732
G1 X78.468 Y76.426 E13.55311
G1 X78.714 Y75.697 E13.5915
G1 X79.034 Y74.998 E13.62985
G1 X79.102 Y74.884 E13.63647
G1 X79.744 Y73.314 E13.7211
G1 X80.072 Y72.618 E13.75948
G1 X80.471 Y71.96 E13.79787
G1 X80.935 Y71.347 E13.83623
G0 F3600 X81.281 Y71.558
G1 F1800 X81.582 Y71.23 E13.85844
G1 X81.818 Y70.988 E13.8753
G1 X82.42 Y70.438 E13.91599
G1 X83.965 Y69.185 E14.01523
G1 X84.57 Y68.746 E14.05252
G1 X85.219 Y68.373 E14.08987
G1 X85.904 Y68.072 E14.12719
G1 X86.617 Y67.846 E14.16451
G1 X87.12 Y67.752 E14.19004
G1 X88.693 Y67.337 E14.2712
G1 X89.426 Y67.185 E14.30855
G1 X90.17 Y67.112 E14.34585
G1 X90.918 Y67.119 E14.38317
G1 X91.3 Y67.153 E14.4023
G1 X94.11 Y67.485 E14.54347
G1 X94.847 Y67.613 E14.58079
G1 X95.567 Y67.818 E14.61813
G1 X95.949 Y67.962 E14.6385
G1 X101.456 Y70.224 E14.93552
G1 X102.29 Y70.633 E14.98186
G1 X102.573 Y70.796 E14.99816
G1 X103.439 Y71.386 E15.05044
G1 X108.249 Y75.216 E15.35719
G1 X108.809 Y75.713 E15.39454
G1 X109.312 Y76.266 E15.43184
G1 X109.552 Y76.578 E15.45148
G1 X113.249 Y81.667 E15.76529
G1 X113.656 Y82.295 E15.80263
G1 X113.993 Y82.962 E15.83991
G1 X114.258 Y83.662 E15.87725
G1 X114.313 Y83.866 E15.88779
G1 X115.932 Y88.187 E16.11801
G1 X116.227 Y88.769 E16.15056
G1 X116.491 Y89.468 E16.18784
G1 X116.657 Y90.091 E16.22
G1 X117.336 Y93.194 E16.37847
G1 X117.457 Y93.932 E16.41578
G1 X117.498 Y94.686 E16.45346
G1 X117.5 Y98.179 E16.62772
G1 X117.46 Y98.926 E16.66505
G1 X117.341 Y99.665 E16.70239
G1 X117.046 Y100.662 E16.75426
G1 X116.904 Y101.037 E16.77427
G1 X116.602 Y101.721 E16.81157
G1 X116.019 Y102.676 E16.86739
G1 X113.666 Y105.911 E17.06696
G1 X113.194 Y106.491 E17.10427
G1 X112.593 Y107.08 E17.14625
G1 X109.59 Y109.686 E17.34462
G1 X109.227 Y109.98 E17.36793
G1 X109.017 Y110.139 E17.38107
G1 X108.1 Y110.727 E17.43541
G1 X101.408 Y114.315 E17.81424
G1 X100.73 Y114.633 E17.8516
G1 X100.023 Y114.877 E17.88892
G1 X99.294 Y115.043 E17.92622
G1 X98.551 Y115.131 E17.96354
G1 X97.803 Y115.14 E18.00086
G1 X97.058 Y115.068 E18.03821
G1 X96.12 Y114.86 E18.08614
G1 X95.964 Y114.814 E18.09425
G1 X95.259 Y114.565 E18.13156
G1 X94.584 Y114.241 E18.16891
G1 X93.948 Y113.848 E18.20621
G1 X93.358 Y113.388 E18.24353
G1 X92.82 Y112.869 E18.28083
G1 X92.34 Y112.295 E18.31816
G1 X91.824 Y111.497 E18.36557
G1 X90.937 Y109.899 E18.45675
G1 X90.609 Y109.227 E18.49406
G1 X90.355 Y108.523 E18.5314
G1 X90.178 Y107.796 E18.56873
G1 X90.169 Y107.731 E18.572
G1 X89.777 Y107.368 E18.59865
G1 X89.256 Y106.832 E18.63595
G1 X88.796 Y106.242 E18.67327
G1 X88.4 Y105.607 E18.71061
G1 X88.075 Y104.933 E18.74794
G1 X87.837 Y104.266 E18.78327
G1 X85.931 Y100.124 E19.01074
G1 X78.939 Y87.122 E19.74726
G1 X78.608 Y86.414 E19.78625
G1 X78.502 Y86.15 E19.80045
G1 X78.261 Y85.442 E19.83776
G1 X78.097 Y84.712 E19.87509
G1 X78.004 Y83.823 E19.91968
G1 X77.906 Y81.386 E20.04136
G1 X77.911 Y80.721 E20.07454
G1 X77.925 Y80.466 E20.08728
G1 X78.005 Y79.723 E20.12457
G1 X78.173 Y78.962 E20.16345
G1 X78.853 Y76.534 E20.28924
G1 X79.093 Y75.826 E20.32654
G1 X79.408 Y75.147 E20.36388
G1 X79.467 Y75.049 E20.36959
G1 X80.115 Y73.465 E20.45497
G1 X80.435 Y72.789 E20.49228
G1 X80.825 Y72.151 E20.52959
G1 X81.281 Y71.558 E20.56691
G0 F3600 X81.868 Y71.509
G1 F1800 X82.104 Y71.267 E20.58377
G1 X82.672 Y70.749 E20.62213
G1 X84.217 Y69.496 E20.72137
G1 X84.805 Y69.07 E20.75759
G1 X85.437 Y68.712 E20.79383
G1 X86.104 Y68.425 E20.83006
G1 X86.799 Y68.213 E20.86631
G1 X87.236 Y68.134 E20.88847
G1 X88.795 Y67.723 E20.9689
G1 X89.507 Y67.577 E21.00516
G1 X90.23 Y67.51 E21.04139
G1 X91.253 Y67.551 E21.09247
G1 X94.063 Y67.883 E21.23363
G1 X94.779 Y68.007 E21.26989
G1 X95.797 Y68.332 E21.3232
G1 X101.304 Y70.594 E21.62022
G1 X102.09 Y70.98 E21.66391
G1 X102.373 Y71.143 E21.6802
G1 X103.19 Y71.699 E21.7295
G1 X108 Y75.529 E22.03626
G1 X108.543 Y76.012 E22.07251
G1 X109.229 Y76.813 E22.12513
G1 X112.926 Y81.902 E22.43894
G1 X113.32 Y82.512 E22.47517
G1 X113.644 Y83.162 E22.51141
G1 X113.895 Y83.844 E22.54766
G1 X113.938 Y84.004 E22.55593
G1 X115.561 Y88.337 E22.78677
G1 X115.584 Y88.373 E22.7889
G1 X115.902 Y89.026 E22.82514
G1 X116.147 Y89.71 E22.86139
G1 X116.266 Y90.176 E22.88538
G1 X116.945 Y93.279 E23.04385
G1 X117.061 Y93.996 E23.08009
G1 X117.098 Y94.686 E23.11456
G1 X117.1 Y98.179 E23.28883
G1 X117.06 Y98.905 E23.32511
G1 X116.941 Y99.621 E23.36132
G1 X116.672 Y100.52 E23.40813
G1 X116.53 Y100.895 E23.42814
G1 X116.236 Y101.559 E23.46437
G1 X115.695 Y102.44 E23.51595
G1 X113.342 Y105.675 E23.71552
G1 X112.884 Y106.238 E23.75173
G1 X112.331 Y106.778 E23.79029
G1 X109.328 Y109.384 E23.98866
G1 X108.986 Y109.661 E24.01061
G1 X108.776 Y109.82 E24.02375
G1 X107.911 Y110.375 E24.07503
G1 X101.219 Y113.963 E24.45385
G1 X100.561 Y114.27 E24.49008
G1 X99.873 Y114.503 E24.52632
G1 X99.163 Y114.66 E24.5626
G1 X98.441 Y114.737 E24.59882
G1 X97.715 Y114.735 E24.63504
G1 X96.993 Y114.653 E24.67129
G1 X96.233 Y114.477 E24.71021
G1 X96.077 Y114.431 E24.71833
G1 X95.393 Y114.187 E24.75456
G1 X94.74 Y113.87 E24.79077
G1 X94.125 Y113.483 E24.82702
G1 X93.557 Y113.031 E24.86324
G1 X93.041 Y112.519 E24.89951
G1 X92.585 Y111.953 E24.93577
G1 X92.173 Y111.303 E24.97416
G1 X91.286 Y109.705 E25.06534
G1 X90.969 Y109.052 E25.10156
G1 X90.726 Y108.367 E25.13782
G1 X90.559 Y107.66 E25.17406
G1 X90.543 Y107.533 E25.18045
G1 X90.049 Y107.075 E25.21406
G1 X89.544 Y106.553 E25.25029
G1 X89.099 Y105.978 E25.28657
G1 X88.721 Y105.359 E25.32275
G1 X88.412 Y104.701 E25.35902
G1 X88.226 Y104.155 E25.3878
G1 X86.286 Y99.939 E25.61933
G1 X79.291 Y86.932 E26.35614
G1 X78.979 Y86.265 E26.39288
G1 X78.873 Y86.001 E26.40707
G1 X78.64 Y85.313 E26.44331
G1 X78.484 Y84.604 E26.47953
G1 X78.403 Y83.807 E26.5195
G1 X78.305 Y81.37 E26.64118
G1 X78.31 Y80.743 E26.67246
G1 X78.324 Y80.488 E26.6852
G1 X78.404 Y79.766 E26.72144
G1 X78.559 Y79.07 E26.75702
G1 X79.239 Y76.642 E26.88281
G1 X79.473 Y75.954 E26.91907
G1 X79.781 Y75.297 E26.95527
G1 X79.826 Y75.228 E26.95938
G1 X80.485 Y73.617 E27.04622
G1 X80.797 Y72.961 E27.08246
G1 X81.178 Y72.343 E27.11868
G1 X81.868 Y71.509 E27.17268
G0 F3600 X81.532 Y72.536
G1 F1800 X82.154 Y71.788 E27.22122
G1 X82.39 Y71.546 E27.23808
G1 X82.924 Y71.06 E27.2741
G1 X84.469 Y69.807 E27.37335
G1 X85.04 Y69.395 E27.40847
G1 X85.654 Y69.051 E27.44359
G1 X86.303 Y68.778 E27.47871
G1 X86.979 Y68.581 E27.51384
G1 X87.364 Y68.514 E27.53334
G1 X88.897 Y68.11 E27.61243
G1 X89.587 Y67.969 E27.64757
G1 X90.289 Y67.908 E27.68272
G1 X91.206 Y67.948 E27.72851
G1 X94.016 Y68.28 E27.86968
G1 X94.71 Y68.402 E27.90484
G1 X95.645 Y68.702 E27.95383
G1 X101.152 Y70.964 E28.25085
G1 X101.89 Y71.326 E28.29185
G1 X102.173 Y71.489 E28.30815
G1 X102.941 Y72.012 E28.3545
G1 X107.751 Y75.842 E28.66126
G1 X108.276 Y76.311 E28.69638
G1 X108.905 Y77.048 E28.74472
G1 X112.602 Y82.137 E29.05854
G1 X112.983 Y82.729 E29.09366
G1 X113.294 Y83.361 E29.1288
G1 X113.532 Y84.023 E29.1639
G1 X113.563 Y84.142 E29.17003
G1 X115.209 Y88.535 E29.40408
G1 X115.276 Y88.644 E29.41046
G1 X115.575 Y89.282 E29.44561
G1 X115.876 Y90.262 E29.49676
G1 X116.555 Y93.365 E29.65523
G1 X116.666 Y94.06 E29.69035
G1 X116.698 Y94.686 E29.72162
G1 X116.7 Y98.179 E29.89589
G1 X116.66 Y98.882 E29.93101
G1 X116.541 Y99.576 E29.96614
G1 X116.298 Y100.379 E30.008
G1 X116.156 Y100.754 E30.028
G1 X115.87 Y101.397 E30.06311
G1 X115.372 Y102.205 E30.11047
G1 X113.019 Y105.44 E30.31004
G1 X112.573 Y105.985 E30.34517
G1 X112.069 Y106.476 E30.38028
G1 X109.066 Y109.082 E30.57865
G1 X108.745 Y109.342 E30.59925
G1 X108.535 Y109.501 E30.6124
G1 X107.722 Y110.022 E30.66057
G1 X101.03 Y113.61 E31.0394
G1 X100.391 Y113.907 E31.07455
G1 X99.723 Y114.13 E31.10969
G1 X99.035 Y114.275 E31.14476
G1 X98.334 Y114.342 E31.1799
G1 X97.63 Y114.328 E31.21503
G1 X96.932 Y114.235 E31.25016
G1 X96.346 Y114.093 E31.28024
G1 X96.19 Y114.047 E31.28835
G1 X95.528 Y113.81 E31.32343
G1 X94.896 Y113.499 E31.35858
G1 X94.303 Y113.119 E31.39371
G1 X93.758 Y112.674 E31.42882
G1 X93.267 Y112.17 E31.46392
G1 X92.835 Y111.613 E31.49909
G1 X92.523 Y111.109 E31.52866
G1 X91.636 Y109.511 E31.61984
G1 X91.33 Y108.877 E31.65497
G1 X91.098 Y108.212 E31.6901
G1 X90.942 Y107.526 E31.7252
G1 X90.921 Y107.337 E31.73469
G1 X90.321 Y106.781 E31.7755
G1 X89.832 Y106.275 E31.81061
G1 X89.404 Y105.716 E31.84573
G1 X89.042 Y105.112 E31.88086
G1 X88.751 Y104.471 E31.91598
G1 X88.608 Y104.026 E31.9393
G1 X86.645 Y99.761 E32.17354
G1 X79.644 Y86.743 E32.91097
G1 X79.35 Y86.116 E32.94552
G1 X79.244 Y85.852 E32.95972
G1 X79.02 Y85.185 E32.99482
G1 X78.872 Y84.497 E33.02993
G1 X78.803 Y83.791 E33.06532
G1 X78.705 Y81.354 E33.187
G1 X78.709 Y80.765 E33.21639
G1 X78.723 Y80.51 E33.22913
G1 X78.802 Y79.811 E33.26422
G1 X78.944 Y79.178 E33.29659
G1 X79.624 Y76.75 E33.42238
G1 X79.852 Y76.084 E33.4575
G1 X80.154 Y75.448 E33.49263
G1 X80.19 Y75.393 E33.49591
G1 X80.855 Y73.768 E33.5835
G1 X81.158 Y73.133 E33.61861
G1 X81.532 Y72.536 E33.65375
G0 F3600 X81.884 Y72.731
G1 F1800 X82.441 Y72.068 E33.69695
G1 X82.677 Y71.826 E33.71382
G1 X83.176 Y71.37 E33.74754
G1 X84.721 Y70.117 E33.84679
G1 X85.274 Y69.72 E33.88075
G1 X85.87 Y69.391 E33.91471
G1 X86.5 Y69.133 E33.94868
G1 X87.156 Y68.951 E33.98264
G1 X87.477 Y68.899 E33.99886
G1 X88.999 Y68.497 E34.0774
G1 X89.667 Y68.362 E34.1114
G1 X90.346 Y68.307 E34.14539
G1 X91.16 Y68.345 E34.18604
G1 X93.97 Y68.677 E34.32721
G1 X94.64 Y68.797 E34.36117
G1 X95.493 Y69.072 E34.40588
G1 X101 Y71.334 E34.7029
G1 X101.691 Y71.673 E34.7413
G1 X101.974 Y71.836 E34.75759
G1 X102.692 Y72.325 E34.80093
G1 X107.502 Y76.155 E35.10769
