;FLAVOR:Marlin
;TIME:6666
;Filament used: 0m
;Layer height: 0.2
;MINX:2.14748e+06
;MINY:2.14748e+06
;MINZ:2.14748e+06
;MAXX:-2.14748e+06
;MAXY:-2.14748e+06
;MAXZ:-2.14748e+06

;Generated with Cura_SteamEngine master
M140 S60
M105
M190 S60
M104 S215
M105
M109 S215
M82 ;absolute extrusion mode
G21 ;metric values
G90 ;absolute positioning
M82 ;set extruder to absolute mode
M107 ;start with the fan off
G92 Y0
G28 X0 ;move X/Y to min endstops
G28 Z0 ;move Z to min endstops
G1 Z15.0 F900 ;move the platform down 15mm
G92 E0 ;zero the extruded length
G1 F200 E6 ;extrude 6 mm of feed stock
G92 E0 ;zero the extruded length again
G1 F3000
;Put printing message on LCD screen
M117 Printing...
G92 E0
G92 E0
G1 F1500 E-6.5
;LAYER_COUNT:18
;LAYER:0
M107
G0 F3600 X88.817 Y64.517 Z0.3
;TYPE:SKIRT
G1 F1500 E0
G1 F1800 X89.301 Y63.893 E0.0394
G1 X89.625 Y63.539 E0.06334
G1 X89.739 Y63.422 E0.07149
G1 X90.318 Y62.885 E0.11089
G1 X90.949 Y62.409 E0.15032
G1 X91.624 Y62 E0.1897
G1 X92.337 Y61.66 E0.22911
G1 X93.081 Y61.395 E0.26851
G1 X93.848 Y61.206 E0.30792
G1 X94.63 Y61.096 E0.34732
G1 X95.212 Y61.066 E0.37639
G1 X96.582 Y61.046 E0.44475
G1 X97.371 Y61.074 E0.48414
G1 X98.154 Y61.182 E0.52357
G1 X98.921 Y61.369 E0.56296
G1 X99.665 Y61.632 E0.60233
G1 X100.092 Y61.834 E0.62589
G1 X100.478 Y61.652 E0.64718
G1 X101.223 Y61.39 E0.68658
G1 X101.991 Y61.203 E0.72602
G1 X102.773 Y61.096 E0.7654
G1 X103.333 Y61.068 E0.79337
G1 X104.887 Y61.046 E0.87091
G1 X105.676 Y61.075 E0.9103
G1 X106.458 Y61.183 E0.94968
G1 X107.225 Y61.37 E0.98907
G1 X107.97 Y61.634 E1.0285
G1 X108.683 Y61.971 E1.06785
G1 X109.36 Y62.379 E1.10728
G1 X109.991 Y62.853 E1.14665
G1 X110.465 Y63.283 E1.17858
G1 X110.584 Y63.4 E1.18691
G1 X111.119 Y63.981 E1.22631
G1 X111.592 Y64.614 E1.26574
G1 X111.998 Y65.291 E1.30512
G1 X112.334 Y66.006 E1.34453
G1 X112.596 Y66.751 E1.38393
G1 X112.781 Y67.518 E1.4233
G1 X112.888 Y68.301 E1.46272
G1 X112.916 Y68.962 E1.49573
G1 X112.916 Y81.289 E2.11073
G1 X112.876 Y82.078 E2.15014
G1 X112.757 Y82.858 E2.18951
G1 X112.559 Y83.623 E2.22893
G1 X112.285 Y84.363 E2.2683
G1 X111.937 Y85.072 E2.3077
G1 X111.519 Y85.743 E2.34714
G1 X111.036 Y86.367 E2.38651
G1 X110.631 Y86.804 E2.41623
G1 X110.514 Y86.921 E2.42449
G1 X109.928 Y87.451 E2.46391
G1 X109.292 Y87.918 E2.50327
G1 X108.612 Y88.319 E2.54266
G1 X107.894 Y88.649 E2.58208
G1 X107.147 Y88.904 E2.62146
G1 X106.378 Y89.083 E2.66085
G1 X105.594 Y89.183 E2.70028
G1 X104.999 Y89.206 E2.72999
G1 X103.652 Y89.206 E2.79719
G1 X102.863 Y89.166 E2.83661
G1 X102.083 Y89.047 E2.87597
G1 X101.318 Y88.849 E2.9154
G1 X100.578 Y88.575 E2.95476
G1 X100.244 Y88.411 E2.97333
G1 X99.625 Y88.686 E3.00712
G1 X98.875 Y88.932 E3.0465
G1 X98.103 Y89.1 E3.08592
G1 X97.319 Y89.19 E3.12529
G1 X96.824 Y89.206 E3.14999
G1 X95.347 Y89.206 E3.22368
G1 X94.558 Y89.166 E3.2631
G1 X93.778 Y89.047 E3.30246
G1 X93.013 Y88.849 E3.34188
G1 X92.273 Y88.575 E3.38125
G1 X91.564 Y88.227 E3.42066
G1 X90.893 Y87.809 E3.4601
G1 X90.269 Y87.326 E3.49946
G1 X89.855 Y86.945 E3.52753
G1 X89.738 Y86.829 E3.53575
G1 X89.206 Y86.245 E3.57517
G1 X88.736 Y85.611 E3.61454
G1 X88.333 Y84.932 E3.65393
G1 X88 Y84.216 E3.69333
G1 X87.741 Y83.47 E3.73273
G1 X87.559 Y82.702 E3.7721
G1 X87.455 Y81.919 E3.81151
G1 X87.43 Y81.326 E3.84112
G1 X87.401 Y75.118 E4.15084
G1 X87.401 Y75.068 E4.15334
G1 X87.412 Y68.968 E4.45767
G1 X87.453 Y68.179 E4.49709
G1 X87.574 Y67.399 E4.53647
G1 X87.774 Y66.635 E4.57587
G1 X88.049 Y65.895 E4.61525
G1 X88.398 Y65.186 E4.65468
G1 X88.817 Y64.517 E4.69406
G0 F3600 X89.214 Y64.648
G1 F1800 X89.912 Y63.818 E4.74816
G1 X90.026 Y63.701 E4.75631
G1 X90.591 Y63.179 E4.79469
G1 X91.206 Y62.718 E4.83304
G1 X91.867 Y62.323 E4.87145
G1 X92.564 Y62 E4.90978
G1 X93.292 Y61.75 E4.94818
G1 X94.042 Y61.577 E4.98658
G1 X94.805 Y61.483 E5.02494
G1 X95.218 Y61.466 E5.04556
G1 X96.588 Y61.446 E5.11391
G1 X97.357 Y61.475 E5.15231
G1 X98.118 Y61.583 E5.19065
G1 X98.864 Y61.77 E5.22902
G1 X99.587 Y62.033 E5.26741
G1 X100.089 Y62.278 E5.29528
G1 X100.649 Y62.015 E5.32614
G1 X101.375 Y61.762 E5.3645
G1 X102.124 Y61.586 E5.40288
G1 X102.887 Y61.488 E5.44126
G1 X103.338 Y61.468 E5.46379
G1 X104.892 Y61.446 E5.54132
G1 X105.661 Y61.475 E5.57972
G1 X106.422 Y61.584 E5.61807
G1 X107.168 Y61.771 E5.65644
G1 X107.891 Y62.034 E5.69482
G1 X108.582 Y62.371 E5.73318
G1 X109.235 Y62.779 E5.77159
G1 X109.842 Y63.251 E5.80995
G1 X110.185 Y63.568 E5.83325
G1 X110.304 Y63.685 E5.84158
G1 X110.824 Y64.252 E5.87996
G1 X111.282 Y64.87 E5.91834
G1 X111.673 Y65.532 E5.9567
G1 X111.994 Y66.231 E5.99507
G1 X112.24 Y66.96 E6.03346
G1 X112.409 Y67.71 E6.07181
G1 X112.5 Y68.474 E6.1102
G1 X112.516 Y68.962 E6.13456
G1 X112.516 Y81.289 E6.74955
G1 X112.476 Y82.057 E6.78792
G1 X112.357 Y82.817 E6.8263
G1 X112.159 Y83.56 E6.86466
G1 X111.885 Y84.279 E6.90305
G1 X111.538 Y84.965 E6.9414
G1 X111.122 Y85.612 E6.97978
G1 X110.641 Y86.212 E7.01814
G1 X110.349 Y86.522 E7.03939
G1 X110.232 Y86.639 E7.04765
G1 X109.66 Y87.153 E7.08601
G1 X109.038 Y87.606 E7.1244
G1 X108.373 Y87.992 E7.16276
G1 X107.671 Y88.307 E7.20115
G1 X106.94 Y88.547 E7.23954
G1 X106.189 Y88.71 E7.27787
G1 X105.424 Y88.794 E7.31627
G1 X104.999 Y88.806 E7.33748
G1 X103.652 Y88.806 E7.40468
G1 X102.884 Y88.766 E7.44305
G1 X102.124 Y88.647 E7.48143
G1 X101.381 Y88.449 E7.51979
G1 X100.662 Y88.175 E7.55818
G1 X100.243 Y87.963 E7.58161
G1 X100.148 Y88.017 E7.58706
G1 X99.444 Y88.327 E7.62544
G1 X98.712 Y88.561 E7.66378
G1 X97.959 Y88.718 E7.70215
G1 X96.824 Y88.806 E7.75895
G1 X95.347 Y88.806 E7.83263
G1 X94.579 Y88.766 E7.871
G1 X93.819 Y88.647 E7.90938
G1 X93.076 Y88.449 E7.94774
G1 X92.357 Y88.175 E7.98613
G1 X91.671 Y87.828 E8.02448
G1 X91.024 Y87.412 E8.06286
G1 X90.424 Y86.931 E8.10123
G1 X90.137 Y86.661 E8.12088
G1 X90.02 Y86.545 E8.1291
G1 X89.503 Y85.976 E8.16746
G1 X89.047 Y85.356 E8.20586
G1 X88.658 Y84.692 E8.24425
G1 X88.341 Y83.992 E8.28259
G1 X88.098 Y83.262 E8.32097
G1 X87.931 Y82.511 E8.35935
G1 X87.844 Y81.747 E8.39772
G1 X87.83 Y81.325 E8.41878
G1 X87.801 Y75.117 E8.7285
G1 X87.801 Y75.069 E8.7309
G1 X87.812 Y68.969 E9.03523
G1 X87.853 Y68.201 E9.0736
G1 X87.974 Y67.441 E9.11199
G1 X88.173 Y66.698 E9.15037
G1 X88.448 Y65.98 E9.18873
G1 X88.797 Y65.294 E9.22713
G1 X89.214 Y64.648 E9.26549
G0 F3600 X89.611 Y64.783
G1 F1800 X90.198 Y64.097 E9.31053
G1 X90.312 Y63.98 E9.31868
G1 X90.862 Y63.473 E9.356
G1 X91.463 Y63.027 E9.39334
G1 X92.108 Y62.648 E9.43066
G1 X92.79 Y62.341 E9.46798
G1 X93.501 Y62.107 E9.50532
G1 X94.232 Y61.951 E9.54261
G1 X95.224 Y61.866 E9.59228
G1 X96.594 Y61.846 E9.66064
G1 X97.341 Y61.875 E9.69794
G1 X98.081 Y61.983 E9.73525
G1 X98.806 Y62.171 E9.77261
G1 X99.506 Y62.434 E9.80992
G1 X100.085 Y62.725 E9.84225
G1 X100.141 Y62.695 E9.84542
G1 X100.819 Y62.377 E9.88278
G1 X101.526 Y62.134 E9.92008
G1 X102.256 Y61.968 E9.95743
G1 X103.344 Y61.868 E10.01194
G1 X104.898 Y61.846 E10.08947
G1 X105.645 Y61.875 E10.12677
G1 X106.385 Y61.984 E10.16409
G1 X107.11 Y62.171 E10.20144
G1 X107.81 Y62.435 E10.23876
G1 X108.478 Y62.772 E10.27609
G1 X109.106 Y63.178 E10.3134
G1 X109.905 Y63.853 E10.36558
G1 X110.024 Y63.97 E10.37391
G1 X110.528 Y64.523 E10.41124
G1 X110.971 Y65.126 E10.44857
G1 X111.347 Y65.772 E10.48586
G1 X111.652 Y66.455 E10.52318
G1 X111.882 Y67.167 E10.56051
G1 X112.035 Y67.9 E10.59786
G1 X112.116 Y68.962 E10.651
G1 X112.116 Y81.289 E11.266
G1 X112.076 Y82.036 E11.30332
G1 X111.957 Y82.774 E11.34061
G1 X111.759 Y83.496 E11.37796
G1 X111.486 Y84.192 E11.41526
G1 X111.139 Y84.855 E11.4526
G1 X110.724 Y85.478 E11.48994
G1 X110.066 Y86.239 E11.54013
G1 X109.949 Y86.356 E11.54839
G1 X109.392 Y86.856 E11.58573
G1 X108.786 Y87.293 E11.62301
G1 X108.136 Y87.664 E11.66035
G1 X107.45 Y87.963 E11.69768
G1 X106.736 Y88.187 E11.73501
G1 X106.003 Y88.334 E11.77231
G1 X104.999 Y88.406 E11.82253
G1 X103.652 Y88.406 E11.88973
G1 X102.905 Y88.366 E11.92705
G1 X102.167 Y88.247 E11.96435
G1 X101.445 Y88.049 E12.0017
G1 X100.749 Y87.776 E12.039
G1 X100.235 Y87.507 E12.06794
G1 X99.95 Y87.669 E12.0843
G1 X99.264 Y87.967 E12.12161
G1 X98.55 Y88.19 E12.15893
G1 X97.816 Y88.335 E12.19626
G1 X96.824 Y88.406 E12.24587
G1 X95.347 Y88.406 E12.31956
G1 X94.6 Y88.366 E12.35688
G1 X93.862 Y88.247 E12.39418
G1 X93.14 Y88.049 E12.43153
G1 X92.444 Y87.776 E12.46883
G1 X91.781 Y87.429 E12.50616
G1 X91.158 Y87.014 E12.54351
G1 X90.419 Y86.377 E12.59218
G1 X90.302 Y86.261 E12.6004
G1 X89.799 Y85.707 E12.63773
G1 X89.359 Y85.102 E12.67506
G1 X88.986 Y84.454 E12.71236
G1 X88.684 Y83.769 E12.74971
G1 X88.457 Y83.056 E12.78704
G1 X88.307 Y82.324 E12.82432
G1 X88.23 Y81.323 E12.8744
G1 X88.201 Y75.115 E13.18413
G1 X88.201 Y75.069 E13.18642
G1 X88.212 Y68.969 E13.49075
G1 X88.253 Y68.222 E13.52807
G1 X88.374 Y67.484 E13.56539
G1 X88.573 Y66.763 E13.6027
G1 X88.848 Y66.067 E13.64004
G1 X89.195 Y65.405 E13.67733
G1 X89.611 Y64.783 E13.71466
G0 F3600 X90.008 Y64.923
G1 F1800 X90.485 Y64.376 E13.75087
G1 X90.599 Y64.259 E13.75902
G1 X91.134 Y63.768 E13.79525
G1 X91.719 Y63.338 E13.83147
G1 X92.348 Y62.975 E13.8677
G1 X93.014 Y62.683 E13.90398
G1 X93.707 Y62.467 E13.94019
G1 X94.42 Y62.327 E13.97644
G1 X95.23 Y62.266 E14.01697
G1 X96.6 Y62.246 E14.08533
G1 X97.325 Y62.275 E14.12153
G1 X98.044 Y62.384 E14.15781
G1 X98.745 Y62.571 E14.194
G1 X99.422 Y62.834 E14.23024
G1 X100.066 Y63.17 E14.26648
G1 X100.094 Y63.189 E14.26817
G1 X100.244 Y63.093 E14.27705
G1 X100.33 Y63.047 E14.28192
G1 X100.988 Y62.74 E14.31814
G1 X101.677 Y62.508 E14.35441
G1 X102.386 Y62.352 E14.39063
G1 X103.35 Y62.268 E14.43891
G1 X104.904 Y62.246 E14.51644
G1 X105.629 Y62.275 E14.55264
G1 X106.347 Y62.385 E14.58888
G1 X107.049 Y62.572 E14.62513
G1 X107.726 Y62.836 E14.66138
G1 X108.37 Y63.172 E14.69762
G1 X108.973 Y63.577 E14.73386
G1 X109.624 Y64.139 E14.77677
G1 X109.743 Y64.256 E14.78509
G1 X110.232 Y64.793 E14.82133
G1 X110.66 Y65.38 E14.85757
G1 X111.02 Y66.011 E14.89381
G1 X111.308 Y66.678 E14.93006
G1 X111.522 Y67.372 E14.96629
G1 X111.658 Y68.085 E15.0025
G1 X111.716 Y68.962 E15.04635
G1 X111.716 Y81.289 E15.66135
G1 X111.676 Y82.014 E15.69758
G1 X111.557 Y82.731 E15.73384
G1 X111.359 Y83.43 E15.77008
G1 X111.086 Y84.103 E15.80632
G1 X110.741 Y84.742 E15.84254
G1 X110.327 Y85.339 E15.87879
G1 X109.783 Y85.956 E15.91983
G1 X109.666 Y86.073 E15.92808
G1 X109.125 Y86.557 E15.9643
G1 X108.534 Y86.98 E16.00056
G1 X107.9 Y87.334 E16.03679
G1 X107.231 Y87.617 E16.07303
G1 X106.535 Y87.825 E16.10927
G1 X105.82 Y87.955 E16.14552
G1 X104.999 Y88.006 E16.18656
G1 X103.652 Y88.006 E16.25376
G1 X102.927 Y87.966 E16.28999
G1 X102.21 Y87.847 E16.32625
G1 X101.511 Y87.649 E16.36249
G1 X100.838 Y87.376 E16.39873
G1 X100.233 Y87.049 E16.43304
G1 X99.753 Y87.321 E16.46056
G1 X99.085 Y87.607 E16.49682
G1 X98.39 Y87.817 E16.53304
G1 X97.676 Y87.951 E16.56928
G1 X96.824 Y88.006 E16.61188
G1 X95.347 Y88.006 E16.68556
G1 X94.622 Y87.966 E16.72179
G1 X93.905 Y87.847 E16.75805
G1 X93.206 Y87.649 E16.7943
G1 X92.533 Y87.376 E16.83053
G1 X91.894 Y87.031 E16.86676
G1 X91.297 Y86.617 E16.903
G1 X90.7 Y86.093 E16.94263
G1 X90.583 Y85.977 E16.95085
G1 X90.096 Y85.438 E16.9871
G1 X89.672 Y84.849 E17.0233
G1 X89.314 Y84.216 E17.05958
G1 X89.028 Y83.548 E17.09584
G1 X88.818 Y82.853 E17.13206
G1 X88.685 Y82.139 E17.16829
G1 X88.63 Y81.321 E17.2092
G1 X88.601 Y75.113 E17.51892
G1 X88.601 Y75.07 E17.52106
G1 X88.612 Y68.97 E17.82539
G1 X88.653 Y68.245 E17.86162
G1 X88.774 Y67.529 E17.89785
G1 X88.973 Y66.83 E17.93411
G1 X89.247 Y66.157 E17.97036
G1 X89.593 Y65.519 E18.00657
G1 X90.008 Y64.923 E18.0428
G0 F3600 X89.992 Y65.637
G1 F1800 X90.405 Y65.067 E18.07792
G1 X90.771 Y64.655 E18.10541
G1 X90.885 Y64.538 E18.11356
G1 X91.404 Y64.063 E18.14866
G1 X91.974 Y63.649 E18.18381
G1 X92.587 Y63.303 E18.21893
G1 X93.235 Y63.028 E18.25405
G1 X93.91 Y62.829 E18.28916
G1 X94.604 Y62.707 E18.32431
G1 X95.235 Y62.666 E18.35586
G1 X96.605 Y62.646 E18.42422
G1 X97.309 Y62.675 E18.45937
G1 X98.004 Y62.785 E18.49447
G1 X98.683 Y62.972 E18.52961
G1 X99.336 Y63.235 E18.56473
G1 X99.955 Y63.571 E18.59987
G1 X100.089 Y63.664 E18.60801
G1 X100.433 Y63.446 E18.62833
G1 X100.519 Y63.4 E18.63319
G1 X101.157 Y63.104 E18.66828
G1 X101.825 Y62.882 E18.7034
G1 X102.514 Y62.737 E18.73853
G1 X103.355 Y62.668 E18.78063
G1 X104.909 Y62.646 E18.85816
G1 X105.613 Y62.676 E18.89332
G1 X106.308 Y62.785 E18.92841
G1 X106.987 Y62.973 E18.96356
G1 X107.639 Y63.236 E18.99864
G1 X108.258 Y63.572 E19.03378
G1 X108.835 Y63.976 E19.06892
G1 X109.344 Y64.424 E19.10275
G1 X109.463 Y64.541 E19.11107
G1 X109.936 Y65.062 E19.14618
G1 X110.347 Y65.634 E19.18132
G1 X110.691 Y66.248 E19.21643
G1 X110.962 Y66.898 E19.25157
G1 X111.159 Y67.574 E19.2867
G1 X111.277 Y68.268 E19.32182
G1 X111.316 Y68.962 E19.3565
G1 X111.316 Y81.289 E19.97149
G1 X111.276 Y81.992 E20.00662
G1 X111.157 Y82.686 E20.04175
G1 X110.959 Y83.361 E20.07685
G1 X110.687 Y84.01 E20.11195
G1 X110.342 Y84.624 E20.14709
G1 X109.931 Y85.195 E20.18219
G1 X109.5 Y85.673 E20.2143
G1 X109.383 Y85.79 E20.22256
G1 X108.858 Y86.259 E20.25768
G1 X108.283 Y86.665 E20.29279
G1 X107.665 Y87.003 E20.32794
G1 X107.014 Y87.27 E20.36304
G1 X106.336 Y87.46 E20.39817
G1 X105.641 Y87.573 E20.4333
G1 X104.999 Y87.606 E20.46537
G1 X103.652 Y87.606 E20.53257
G1 X102.949 Y87.566 E20.5677
G1 X102.255 Y87.447 E20.60283
G1 X101.58 Y87.249 E20.63793
G1 X100.931 Y86.977 E20.67303
G1 X100.317 Y86.632 E20.70817
G1 X100.243 Y86.579 E20.71271
G1 X100.169 Y86.626 E20.71708
G1 X99.556 Y86.972 E20.7522
G1 X98.907 Y87.245 E20.78733
G1 X98.232 Y87.444 E20.82244
G1 X97.538 Y87.565 E20.85758
G1 X96.824 Y87.606 E20.89327
G1 X95.347 Y87.606 E20.96695
G1 X94.644 Y87.566 E21.00208
G1 X93.95 Y87.447 E21.03721
G1 X93.275 Y87.249 E21.07231
G1 X92.626 Y86.977 E21.10741
G1 X92.012 Y86.632 E21.14255
G1 X91.441 Y86.221 E21.17765
G1 X90.982 Y85.809 E21.20842
G1 X90.865 Y85.693 E21.21664
G1 X90.394 Y85.17 E21.25176
G1 X89.985 Y84.596 E21.28692
G1 X89.644 Y83.98 E21.32205
G1 X89.375 Y83.33 E21.35714
G1 X89.182 Y82.653 E21.39226
G1 X89.066 Y81.959 E21.42737
G1 X89.03 Y81.319 E21.45935
G1 X89.001 Y75.111 E21.76907
G1 X89.001 Y75.071 E21.77106
G1 X89.012 Y68.971 E22.0754
G1 X89.053 Y68.268 E22.11053
G1 X89.174 Y67.574 E22.14567
G1 X89.372 Y66.899 E22.18077
G1 X89.646 Y66.25 E22.21591
G1 X89.992 Y65.637 E22.25103
G0 F3600 X90.39 Y65.759
G1 F1800 X90.801 Y65.216 E22.28501
G1 X91.058 Y64.934 E22.30404
G1 X91.172 Y64.817 E22.31219
G1 X91.675 Y64.358 E22.34617
G1 X92.228 Y63.962 E22.3801
G1 X92.824 Y63.632 E22.41409
G1 X93.455 Y63.375 E22.44808
G1 X94.111 Y63.194 E22.48203
G1 X94.784 Y63.09 E22.51601
G1 X95.241 Y63.066 E22.53884
G1 X96.611 Y63.046 E22.60719
G1 X97.292 Y63.076 E22.6412
G1 X97.964 Y63.185 E22.67517
G1 X98.618 Y63.373 E22.70912
G1 X99.246 Y63.636 E22.74308
G1 X99.839 Y63.97 E22.77704
G1 X100.074 Y64.142 E22.79157
G1 X100.621 Y63.799 E22.82378
G1 X100.707 Y63.753 E22.82864
G1 X101.326 Y63.467 E22.86266
G1 X101.973 Y63.256 E22.89662
G1 X102.641 Y63.123 E22.9306
G1 X103.361 Y63.068 E22.96662
G1 X104.915 Y63.046 E23.04416
G1 X105.595 Y63.076 E23.07812
G1 X106.267 Y63.186 E23.11209
G1 X106.922 Y63.374 E23.14609
G1 X107.549 Y63.637 E23.18001
G1 X108.142 Y63.972 E23.21399
G1 X108.692 Y64.374 E23.24798
G1 X109.063 Y64.709 E23.27291
G1 X109.182 Y64.826 E23.28124
G1 X109.639 Y65.331 E23.31522
G1 X110.033 Y65.886 E23.34918
G1 X110.36 Y66.484 E23.38318
G1 X110.614 Y67.115 E23.41712
G1 X110.793 Y67.772 E23.45109
G1 X110.893 Y68.446 E23.48508
G1 X110.916 Y68.962 E23.51085
G1 X110.916 Y81.289 E24.12585
G1 X110.876 Y81.969 E24.15983
G1 X110.757 Y82.639 E24.19378
G1 X110.56 Y83.291 E24.22776
G1 X110.288 Y83.915 E24.26172
G1 X109.944 Y84.503 E24.29571
G1 X109.534 Y85.047 E24.32969
G1 X109.217 Y85.39 E24.353
G1 X109.1 Y85.507 E24.36125
G1 X108.591 Y85.96 E24.39525
G1 X108.033 Y86.349 E24.42918
G1 X107.433 Y86.671 E24.46315
G1 X106.799 Y86.92 E24.49714
G1 X106.14 Y87.093 E24.53113
G1 X105.466 Y87.187 E24.56508
G1 X104.999 Y87.206 E24.5884
G1 X103.652 Y87.206 E24.6556
G1 X102.972 Y87.166 E24.68958
G1 X102.302 Y87.047 E24.72353
G1 X101.65 Y86.85 E24.75751
G1 X101.026 Y86.578 E24.79147
G1 X100.438 Y86.234 E24.82546
